X: 25366
T: Maple Sugar
R: reel
M: 4/4
K: Dmajor
FG|A2 AB AFAd|f2 fe d2 cd|e2 ed c=cB^A|A=cGB AFGB|
A2 AB AFAd|f2 fe d2 cd|e2 ed cABc|d2 dc d2|

